X:195
T: WIR DANKEN DEM HERRN
N: F0340
O: Europa, Mitteleuropa, Deutschland
R: Jugend - Lied, Lob , Dank, religioes
M: 4/4
L: 1/8
K: C
G,2 | C4D2D2 | E4z2
E2 | F4E4 | E4D2
D2 | D4E2F2 | G2G2
GFED | C4B,4 | C4z2

@@@ Tune index: 5626
